!!!OTL: Schlummerlied.
!!!OTL-incipit: SCHLOF KINKCHEN OM KOESSCHEN
!!!ARE: Europa, Mitteleuropa, Deutschland, Niederrhein
!!!SCT: Z1365
!!!YEM: Copyright 1995, estate of Helmut Schaffrath.
**kern	**text
*ICvox	*
*M6/8	*
*k[f#]	*
*G:	*
=1	=1
!LO:TX:a:t=Vom Niederrhein.	!
{8.ddL	Schlof,
16ee	.
8ddJ	.
8.b	Kinkchen,
16cc	.
8b	om
=2	=2
4.g	Kößchen,
4.d}	.
=3	=3
{8.dd	Ap-
16ee	-pelchen,
8dd	.
8.b	Birnchen
16cc	.
8b	un
=4	=4
4.g	Nöß-
4.d}	-chen,
=5	=5
{4a	Ʒuk-
8a	-ker-
8a	-kö-
8b	-chel-
8cc#	-chen,
=6	=6
8.ddL	Man-
16cc#J	.
8dd	-del-
4a	-kern-
8a}	-chen
=7	=7
{8.a	eſ-
16a	-ſen
8a	die
8aL	le-
8bJ	.
8cc#	-ve
=8	=8
8.ddL	Kin-
16cc#J	.
8dd	-der
4a	gernchen;
8a}	.
=9	=9
{8.ddL	ſchlof
16eeJ	.
8dd	en
8.bL	go-
16ccJ	.
8b	-de
=10	=10
(4.g	Roh,
4.d)}	.
=11	=11
{8.ddL	knip
16eeJ	.
8dd	ding
8.b	Aeugel-
16cc	.
8a	-chen
=12	=12
4g	ʒo!
4r	.
4r}	.
==	==
!!!AGN: Kinder - Lied
!!!ONB: ESAC (Essen Associative Code) Database: ZUCCAL
!!!AMT: compound duple
!!!AIN: vox
!!!EED: Helmut Schaffrath
!!!EEV: 1.0
!!!GTL: IX. Kinder- Lieder.
!!!URL-scan: https://www.digitale-sammlungen.de/de/view/bsb11160573?page=667
!!!ENC: Anna Maria Matuszewska
!!!EEV: 2025/02/07
*-	*-
